2017/images/schedule/lunch.svg

<?xml version="1.0" standalone="no"?>
<!-- Generator: Adobe Fireworks CS5, Export SVG Extension by Aaron Beall (http://fireworks.abeall.com) . Version: 0.6.1  -->
<!DOCTYPE svg PUBLIC "-//W3C//DTD SVG 1.1//EN" "http://www.w3.org/Graphics/SVG/1.1/DTD/svg11.dtd">
<svg id="Untitled-Page%201" viewBox="0 0 110 110" style="background-color:#ffffff00" version="1.1"
	xmlns="http://www.w3.org/2000/svg" xmlns:xlink="http://www.w3.org/1999/xlink" xml:space="preserve"
	x="0px" y="0px" width="110px" height="110px"
>
	<g id="Layer%201">
		<g>
			<path d="M 37.0058 27.8154 C 37.0058 27.8154 37.0058 41.998 37.0058 44.1538 C 37.0058 46.3096 38.5964 47.7847 39.7327 48.6924 C 40.8688 49.6001 41.5505 50.6211 41.5505 52.323 C 41.5505 54.0249 41.5505 83.1846 41.5505 83.1846 C 41.5505 83.1846 42.2323 84.0923 44.2775 84.0923 L 44.2775 26.9077 C 44.2775 26.9077 42.4595 26.2268 42.4595 27.8154 C 42.4595 29.4038 42.4595 39.7288 42.4595 40.5232 C 42.4595 41.3174 41.5505 41.4307 41.5505 41.4307 C 41.5505 41.4307 39.7327 41.3174 39.7327 39.6155 C 39.7327 37.9136 39.7327 27.8154 39.7327 27.8154 C 39.7327 27.8154 39.1646 27.1345 38.8237 26.9077 C 38.4828 26.6807 36.8922 26.5674 37.0058 27.8154 Z" fill="#ffffff"/>
			<path d="M 50.6344 27.8154 C 50.6344 27.8154 50.6344 41.998 50.6344 44.1538 C 50.6344 46.3096 49.0437 47.7847 47.9075 48.6924 C 46.7713 49.6001 46.0896 50.6211 46.0896 52.323 C 46.0896 54.0249 46.0896 83.1846 46.0896 83.1846 C 46.0896 83.1846 45.4078 84.0923 43.3627 84.0923 L 43.3627 26.9077 C 43.3627 26.9077 45.1806 26.2268 45.1806 27.8154 C 45.1806 29.4038 45.1806 39.7288 45.1806 40.5232 C 45.1806 41.3174 46.0896 41.4307 46.0896 41.4307 C 46.0896 41.4307 47.9075 41.3174 47.9075 39.6155 C 47.9075 37.9136 47.9075 27.8154 47.9075 27.8154 C 47.9075 27.8154 48.4756 27.1345 48.8165 26.9077 C 49.1573 26.6807 50.748 26.5674 50.6344 27.8154 Z" fill="#ffffff"/>
		</g>
		<path d="M 67.805 26.21 C 66.4047 26.8506 66.0925 28.7231 66.0925 28.7231 L 66.0925 59.5847 C 66.0925 59.5847 60.2979 64.3501 60.6387 74.1077 C 60.9029 81.6717 65.6734 84.0561 67.805 84.745 L 68.82 84.74 C 70.951 84.0518 75.7213 81.6729 75.9855 74.1077 C 76.3264 64.3501 70.5318 59.5847 70.5318 59.5847 L 70.5318 28.7231 C 70.5318 28.7231 70.2206 26.8552 68.82 26.215 L 67.805 26.21 Z" fill="#ffffff"/>
	</g>
</svg>

<svg style="background-color:#ffffff00" xmlns="http://www.w3.org/2000/svg" width="110" height="110"><g fill="#fff"><path d="M37.006 27.815v16.339c0 2.156 1.59 3.63 2.727 4.538 1.136.908 1.818 1.93 1.818 3.631v30.862s.681.907 2.727.907V26.908s-1.819-.681-1.819.907v12.708c0 .794-.909.908-.909.908s-1.817-.114-1.817-1.816v-11.8s-.568-.68-.91-.907c-.34-.227-1.93-.34-1.817.907z"/><path d="M50.634 27.815v16.339c0 2.156-1.59 3.63-2.727 4.538-1.136.908-1.817 1.93-1.817 3.631v30.862s-.682.907-2.727.907V26.908s1.818-.681 1.818.907v12.708c0 .794.909.908.909.908s1.817-.114 1.817-1.816v-11.8s.569-.68.91-.907c.34-.227 1.931-.34 1.817.907zm17.171-1.605c-1.4.64-1.713 2.513-1.713 2.513v30.862s-5.794 4.765-5.453 14.523c.264 7.564 5.034 9.948 7.166 10.637l1.015-.005c2.131-.688 6.901-3.067 7.166-10.632.34-9.758-5.454-14.523-5.454-14.523V28.723s-.311-1.868-1.712-2.508l-1.015-.005z"/></g></svg>
